!!!!SEGMENT: pl-cz--ii-87--004-004_hepner--msza-st-credo.krn
!!!cenid: 18xx:1191
!!!COM: Hepner
!!!COM-rismID: pe30021002
!!!CDT: ~1800-~1899
!!!CNT:
!!!OPR: Msza St.
!!!OTL: Credo
!!!OMV: 004
!!!PDT: 1888
!!!AGN: Sacred; Mass
!!!SMS-siglum: PL-CZ
!!!SMS-shelfmark: II-87
!!!SMS-shelfwork: 004-004 M
!!!SMS-variant:
!!!SMS-altvar:
!!!NIFC-rismSourceID: 300033223
!!!NIFC-rismChildID: 300033227
!!!NIFC-islandoraID: pl-cz:33881
!!!URL-pdf-islandora: https://repozytorium.nifc.pl/islandora/object/pl-cz%3A33881/datastream/PDF/view
!!!URL-scan: https://polish.musicsources.pl/pl/lokalizacje/galeria/rekopisy/6814/1 @EN{Scan on Polish Music Sources Website} @PL{Skany w portalu Dziedzictwo Muzyki Polskiej w otwartym dostępie}
!!!ONB-nifc: UWAGA: części Mszy: Kirie, Gloria, Graduale, Credo, Offertorium, Sanctus, Benedictus, Agnus, Communio, Benedicio
!!!AIN: 1 organ
!!!key: C
!!!OMD: Andantino
**kern	**kern	**text	**text
*part1	*part1	*part1	*part1
*staff2	*staff1	*staff1	*staff1
*ICklav	*ICklav	*	*
*IGacmp	*IGacmp	*	*
*Iorgan	*Iorgan	*	*
*I"	*I"	*	*
*>[A,B,B,C,D,D,E]	*>[A,B,B,C,D,D,E]	*>[A,B,B,C,D,D,E]	*>[A,B,B,C,D,D,E]
*>A	*>A	*>A	*>A
*clefF4	*clefG2	*	*
*k[]	*k[]	*	*
*C:	*C:	*	*
*M3/4	*M3/4	*	*
=1	=1	=1	=1
2.C [2.CC/	4e 4c/	.	.
.	4f 4d/	.	.
.	4g 4e/	.	.
=2	=2	=2	=2
2C 2CC/]	2a 2f/	.	.
8C\L	4g 4e/	.	.
8E\J	.	.	.
=3	=3	=3	=3
!LO:TX:t=P:problem=mixed beam	!	!	!
8G\L	8f 8d/	.	.
8GG/	8r	.	.
8BB/	8b 8g 8f 8d/	.	.
8D/	8r	.	.
8G/	8b 8g 8f 8d/	.	.
8GG/J	8r	.	.
=4	=4	=4	=4
8C\L	8ccL 8g 8e 8c/	.	.
8c\	8e/	.	.
8d\	8f/	.	.
8e\	8g/	.	.
8f\	8a/	.	.
8g\J	8b/J	.	.
=5!|:	=5!|:	=5!|:	=5!|:
*>B	*>B	*>B	*>B
4c 4C\	4cc 4g 4e/	Wie-	Tys
4c 4C\	4a 4f/	-rzy-	pa-
4c 4C\	4g 4e/	-my	-nem
=6	=6	=6	=6
4c 4C\	2a 2f/	Bo-	zie-
4c 4C\	.	.	.
4c 4C\	4g 4e/	-że	-mi
=7	=7	=7	=7
4BB/	2f 2d/	Oj-	Pa-
4G 4BB\	.	.	.
4G 4BB\	8gL 8e/	-cze	-nem
.	8fJ 8d/	.	.
!!LO:LB:g=original
=8	=8	=8	=8
4G 4BB\	4f 4d/	w nie-	w nie-
8GL 8BB\	4e 4c/	-bie	-bie
8E\	.	.	.
8G\	4r	.	.
8c\J	.	.	.
=9	=9	=9	=9
4E\	4cc 4g 4e/	Ty	Ty
4D\	4b 4g 4f 4d/	ży-	stwur-
4C\	4cc 4g 4e/	-cie	-ca
=10	=10	=10	=10
!	!LO:TX:a:t=a\nf	!	!
2F\	2a 2f/	du-	Ty
4D/	8ffL 8a\	-szę	wszech-
.	8ddJ 8f\	.	.
=11	=11	=11	=11
2G\	2cc 2g 2e\	wla-	-mo-
4G\	4b 4g 4d/	-łeś	-cny
=12	=12	=12	=12
4.c 4.C\	4.cc 4.g 4.e/	nam.	sam.
8C\L	8r	.	.
8E\	4r	.	.
8G\J	.	.	.
=13:|!	=13:|!	=13:|!	=13:|!
*>C	*>C	*>C	*>C
4G 4GG\	4dd 4b\	Wie-	.
4G 4GG\	4dd 4b\	-że-	.
4G 4GG\	4dd 4b\	my	.
=14	=14	=14	=14
4G 4GG\	2dd 2b\	w Sy-	.
4G 4GG\	.	.	.
4G 4GG\	4b 4g\	na	.
!!LO:LB:g=original
=15	=15	=15	=15
4D\	(4a (4f#X/	Twe-	.
4D\	4b) 4g/)	.	.
4D\	4cc 4a/	-go	.
=16	=16	=16	=16
4D\	4cc 4a/	bó-	.
4D\	4b 4g/	-stwa	.
4G\	4r	.	.
=17	=17	=17	=17
4G\	4g/	i	.
4F#X\	4a/	że	.
4Fn\	4b/	po-	.
=18	=18	=18	=18
4E\	(4cc 4a\	-czę-	.
4D\	4dd 4b\)	.	.
4C\	4ee 4cc 4g\	-tym	.
=19	=19	=19	=19
2BB/	2ff 2dd 2g\	z Du-	.
4C/	4ee 4cc 4g\	-cha	.
=20	=20	=20	=20
4G 4GG\	(4ee 4cc 4g\	.	.
8r	4dd 4b\)	.	.
8G\L	.	.	.
8D\	4r	.	.
8BB\J	.	.	.
!!LO:LB:g=original
=21||	=21||	=21||	=21||
!!!OMD: Adagio
!	!LO:TX:a:t=Et in Carnatus	!	!
4GG/	4dd 4b 4g\	Zniósł	.
4G\	4dd 4b 4g\	mę-	.
4G\	4dd 4b 4g\	-ki	.
=22	=22	=22	=22
4GG/	2ee-X 2cc 2g\	krzyw-	.
4G\	.	.	.
4G\	4dd 4b 4g\	-dy	.
=23	=23	=23	=23
4GG/	2ee-X 2cc 2g\	smer-	.
4G\	.	.	.
4G\	4dd 4b 4g\	-ci	.
=24	=24	=24	=24
4G 4GG\	4ee-X 4cc 4g\	bus-	.
4G 4GG\	4dd 4b 4g\	-twa	.
4r	4r	.	.
=25	=25	=25	=25
4BB/	8ggL 8dd 8g\	by	.
.	8ff\J	.	.
4C/	4een 4cc 4g\	grze-	.
4D/	4dd 4b 4g\	-chi	.
=26	=26	=26	=26
4E\	(4cc 4g\	lu-	.
4D\	4b 4g 4e/)	.	.
4C/	4cc 4g 4e/	-du	.
=27	=27	=27	=27
4F\	2a 2f/	swe-	.
4D\	.	.	.
4G\	4b 4g 4f 4d/	-go	.
=28	=28	=28	=28
2c 2C\	2cc 2g 2f\	zmił	.
4r	4r	.	.
!!LO:LB:g=original
=29	=29	=29	=29
*	*^	*	*
4GG/	4dd 4b/	4g\	By	.
4G\	4dd 4b/	4g\	grze-	.
4G\	4dd 4b/	4g\	-chy	.
=30	=30	=30	=30	=30
4C/	4ee/	4cc 4g\	lu-	.
4E\	4dd/	4b 4g#X\	-du	.
4A\	4cc/	4a\	swe-	.
=31	=31	=31	=31	=31
4D\	(4dd/	(4a 4f\	-go	.
4G\	4cc/)	4g 4e\)	.	.
4GG/	4b/	4f 4d\	zmył	.
*	*v	*v	*	*
=32	=32	=32	=32
(8c\L	(8ccL 8g 8e/	.	.
8c\	8e/	.	.
8d\	8f/	.	.
8e\	8g/	.	.
8f\	8a/	.	.
8g\J)	8b/J)	.	.
=33!|:	=33!|:	=33!|:	=33!|:
*>D	*>D	*>D	*>D
!	!LO:TX:a:t=Tempo I	!	!
2.r	4cc 4g 4e/	Wie-	Ze
.	4g 4e/	-rze-	przyj-
.	4g 4e/	-my	-dziesz
=34	=34	=34	=34
4C/	2a 2f 2c/	w pra-	są-
4C/	.	.	.
4C/	4g 4e 4c/	-wdę	-dzić
=35	=35	=35	=35
4G 4BB\	2g 2d/	wszy-	wszy-
4G 4BB\	.	.	.
4G 4BB\	8gL 8e/	-stkich	-stkich
.	8fJ 8d/	.	.
!!LO:LB:g=original
=36	=36	=36	=36
4G 4BB\	4g 4f 4d/	cu-	lu-
8C\L	4g 4e 4c/	-dow	-dow
8E\	.	.	.
8G\	4r	.	.
8c\J	.	.	.
=37	=37	=37	=37
4E\	4cc 4g/	wie-	że
4D\	4b 4g 4f/	-rze-	wie-
4C\	4cc 4g 4e/	-my	-cznie
=38	=38	=38	=38
2F\	2a 2f/	w Swię-	wie-
4D\	(8ffL 8a\	-ty	-cznie
.	8ddJ 8g\)	.	.
=39	=39	=39	=39
2G\	2cc 2g 2e\	Kos-	ży-
4G\	4b 4g 4d/	-cioł	-cie
=40	=40	=40	=40
4.c 4.C\	4.cc 4.g 4.e/	nasz	dasz
(8C\L	8r	.	.
8E\	4r	.	.
8G\J)	.	.	.
=41:|!	=41:|!	=41:|!	=41:|!
*>E	*>E	*>E	*>E
4GG/	4dd 4b 4g\	Że	.
4G\	4dd 4b 4g\	wie-	.
4G\	4dd 4b 4g\	-cznie	.
!!LO:PB:g=original
=42	=42	=42	=42
4E\	(4.gg 4.cc 4.g\	wie-	.
4D\	.	.	.
.	8ff 8b 8g\)	.	.
4C\	4ee 4cc 4g\	-cznie	.
=43	=43	=43	=43
4F\	4dd 4a 4f\	ży-	.
4G\	4cc 4g 4e\	-cie	.
4GG/	4b 4g 4f 4d/	dasz.	.
=44||	=44||	=44||	=44||
!LO:N:vis=2	!	!	!
2.C [2.CC/	2.cc 2.g 2.e/	.	.
=45	=45	=45	=45
!LO:N:vis=2	!	!	!
2.C 2.CC/]	4dd 4a 4f/	.	.
.	4cc 4g 4e/	.	.
.	4b 4g 4f 4d/	.	.
=46	=46	=46	=46
2.C 2.CC/	2.cc 2.g 2.e/	.	.
==	==	==	==
*-	*-	*-	*-
!!!system-decoration: (s1,s2)
!!!ENC: Andrzej Gręziak
!!!END: 2020-11-08
!!!ENC: Marta Lawrence
!!!END: 2021-11-15
!!!YEC: Copyright 2022 Narodowy Instytut Fryderyka Chopina (https://polishscores.org)
!!!YEM: License CC-BY-4.0 (https://creativecommons.org/licenses/by/4.0)
